X:1
T: The Pretty Brown Girl
C:
R:Jig
Q:180
K:G
M:6/8
L:1/16
|:A2|B4d2 c2A2A2|B2G2G2 c2A2G2|B4d2 c2A2A2|B2G2G2 G4A2|
B4d2 c2A2A2|B2d2e2 d2B2G2|B4d2 c2B2A2|1B2G2G2 G4A2:|2B2G2G2 G4f2|
|:g2e2e2 f2d2d2|e2c2e2 d2B2G2|g2f2e2 f2d2f2|e2c2e2 d4ef|
g2f2e2 f2d2f2|efg2e2 d2B2G2|B4d2 c2B2A2|1B2G2G2 G4f2:|2B2G2G2 G4||
